!!!!SEGMENT: pl-cz--ii-245--004_anonim--partita-b-polo.krn
!!!cenid: 18xx:2489
!!!COM: Anonim
!!!COM-rismid: pe30004985
!!!CDT:
!!!CNT:
!!!OPR: Partita B
!!!OTL: Polo
!!!OMV: 004
!!!PDT:
!!!AGN: Secular; Partita
!!!SMS-siglum: PL-CZ
!!!SMS-shelfmark: II-245
!!!SMS-shelfwork: 001-004 M
!!!SMS-variant:
!!!SMS-altvar:
!!!NIFC-rismid: 1001012549
!!!URL-scan: http://repozytorium.nifc.pl/skany/pl-cz-nut--ii-245
!!!ONB-nifc: UWAGA: części Partity: 1. Andante, 2. Allegro, 3. Adagio, 4. Polo
!!!key:
**kern	**dynam	**kern	**dynam	**kern	**dynam	**kern	**dynam	**kern
*part5	*part5	*part4	*part4	*part3	*part3	*part2	*part2	*part1
*staff5	*	*staff4	*	*staff3	*	*staff2	*	*staff1
*Ifagot	*	*Iempty	*	*Iempty	*	*Iclars	*	*Iclars
*I"Fagotto	*	*I"Cornu Secondo in B	*	*I"Cornu Primo in B	*	*I"Clarinetto Secundo in B.	*	*I"Clarinetto Primo in B.
*I'Fag.	*	*I'cor 2 in B	*	*I'cor 1 in B	*	*I'cl 2 in B	*	*I'cl 1 in B
*clefF4	*	*clefG2	*	*clefG2	*	*clefG2	*	*clefG2
*	*	*ITrd1c2	*	*ITrd1c2	*	*ITrd1c2	*	*ITrd1c2
*k[b-e-]	*	*k[b-e-]	*	*k[b-e-]	*	*k[b-e-]	*	*k[b-e-]
*B-:	*	*B-:	*	*B-:	*	*B-:	*	*B-:
*M3/4	*	*M3/4	*	*M3/4	*	*M3/4	*	*M3/4
*>[A,B,B,,C,B,B,C,D,D,E,E]	*	*	*	*	*	*	*	*
=1	=1	=1	=1	=1	=1	=1	=1	=1
*>A	*	*	*	*	*	*	*	*
!	!	!	!LO:DY:t=for	!	!LO:DY:t=for	!	!LO:DY:t=for	!LO:TX:t=P:problem:brak partii, źródło wybrakowane lub skany niepełne
8.B-\L	.	8B-/	f	8b-\	f	8.B-/L	f	2.ryy
.	.	16r	.	16r	.	.	.	.
*Xtuplet	*	*	*	*	*	*Xtuplet	*	*
(48F\LL	.	16F/	.	16f/	.	48F/LL	.	.
48G\	.	.	.	.	.	48G/	.	.
48A\JJJ	.	.	.	.	.	48A/JJJ	.	.
8B-\L)	.	8B-'/L	.	8b-'\L	.	8B-/L	.	.
8B-\J	.	8B-'/J	.	8b-'\J	.	8B-/J	.	.
8B-\	.	8B-'/	.	8b-'\	.	8B-/	.	.
8r	.	8r	.	16r	.	8r	.	.
.	.	.	.	16r	.	.	.	.
=2	=2	=2	=2	=2	=2	=2	=2	=2
8c\L	.	8cc\	.	8cc\	.	8c,</L	.	2.ryy
(32F\LL	.	16r	.	16r	.	32F/LL	.	.
32G\	.	.	.	.	.	32G/	.	.
32A\)	.	16f/	.	16f/	.	32A/	.	.
32B-\JJJ	.	.	.	.	.	32B-/JJJ	.	.
8c\L	.	8cc'\L	.	8cc\L	.	8c/L	.	.
8c\J	.	8cc'\J	.	8cc\J	.	8c/J	.	.
8c\	.	8cc'\	.	8cc\	.	8c/	.	.
8r	.	8r	.	8r	.	8r	.	.
=3	=3	=3	=3	=3	=3	=3	=3	=3
*	*	*2\right	*	*2\right	*	*	*	*
!LO:TX:t=P:problem:mixed beam	!	!	!LO:DY:t=p.	!	!	!LO:TX:b:t=dol	!	!
8BB-/L	p	2b-\	p	2dd\	p	4.dd\	.	2.ryy
8B-\	.	.	.	.	.	.	.	.
8B-\	.	.	.	.	.	.	.	.
8B-\J	.	.	.	.	.	8b-\	.	.
8F\L	.	4f/	.	4ff\	.	(16dd\LL	.	.
.	.	.	.	.	.	16cc\	.	.
8F\J	.	.	.	.	.	16b-\	.	.
.	.	.	.	.	.	16a\JJ)	.	.
=4	=4	=4	=4	=4	=4	=4	=4	=4
8B-'\L	.	8d'/L	.	8b-'\L	.	8b-'\L	.	2.ryy
8B-'\	.	8d'/	.	8b-'\	.	8b-'\	.	.
8F'\	.	8f'/	.	8cc'\	.	8a'\	.	.
8F'\	.	8f'/	.	8cc'\	.	8a'\	.	.
8B-'\	.	8b-'/	.	8dd'\	.	8b-'\	.	.
8B-'\J	.	8b-'/J	.	8dd'\J	.	8b-'\J	.	.
!LO:LB;g=original	!	!LO:LB:g=original	!	!LO:LB:g=original	!	!LO:LB:g=original	!	!
=5	=5	=5	=5	=5	=5	=5	=5	=5
!LO:TX:t=P:problem:mixed beam	!	!	!	!	!	!	!	!
8BB-/L	.	2b-\	.	2dd\	.	4.dd\	.	2.ryy
8B-\	.	.	.	.	.	.	.	.
8B-\	.	.	.	.	.	.	.	.
8F\	.	.	.	.	.	8b-\	.	.
8F\J	.	4f/	.	4ff\	.	16dd\LL	.	.
.	.	.	.	.	.	16cc\	.	.
8ryy	.	.	.	.	.	16b-\	.	.
.	.	.	.	.	.	16f\JJ	.	.
=6	=6	=6	=6	=6	=6	=6	=6	=6
8BB-/	.	8d'/L	.	8b-'\L	.	8d/L	.	2.ryy
8r	.	8f'/	.	8dd'\	.	8f/	.	.
8B-\	.	8d'/	.	8b-'\	.	8d/	.	.
8r	.	8f'/J	.	8dd'\J	.	8f/J	.	.
8BB-/	.	8d/	.	8b-\	.	8d/	.	.
8r	.	8r	.	8r	.	8r	.	.
=7	=7	=7!|:	=7!|:	=7!|:	=7!|:	=7!|:	=7!|:	=7!|:
*>B	*	*	*	*	*	*	*	*
!LO:TX:t=[segno]	!	!LO:TX:t=[segno]	!	!LO:TX:t=[segno]	!	!LO:TX:t=[segno]	!	!
!LO:TX:t=P:problem:mixed beam	!LO:DY:t=for	!	!	!	!	!	!	!
8C/L	f	(>4f/	.	(4cc\	.	(>16e-/LL	.	2.ryy
.	.	.	.	.	.	16f/	.	.
8c\J	.	.	.	.	.	16e-/	.	.
.	.	.	.	.	.	16f/JJ	.	.
*	*	*	*	*	*	*rep	*	*
!LO:TX:t=P:problem:mixed beam	!	!	!	!	!	!	!	!
8AA/L	.	8r	.	8r	.	16e-/LL	.	.
.	.	.	.	.	.	16f/	.	.
8A\J	.	8f/L	.	8cc\L	.	16e-/	.	.
.	.	.	.	.	.	16f/JJ	.	.
*	*	*	*	*	*	*Xrep	*	*
*	*	*	*	*	*	*rep	*	*
!LO:TX:t=P:problem:mixed beam	!	!	!	!	!	!	!	!
8FF/L	.	8f/	.	8cc\	.	16e-/LL	.	.
.	.	.	.	.	.	16f/	.	.
8F\J	.	8f/J	.	8cc\J	.	16e-/	.	.
!	!	!	!	!LO:TX:a:t=rep&colon;	!	!LO:TX:a:t=rep&colon;	!	!
.	.	.	.	.	.	16f/JJ	.	.
*	*	*	*	*	*	*Xrep	*	*
=8	=8	=8	=8	=8	=8	=8	=8	=8
!	!	!LO:TX:a:t=rep&colon;	!	!	!	!	!	!
4BB-/	.	8b-\	.	8dd\	.	16d/LL	.	2.ryy
.	.	.	.	.	.	16f/	.	.
.	.	8r	.	8r	.	16d/	.	.
.	.	.	.	.	.	16f/JJ	.	.
*	*	*	*	*	*	*rep	*	*
4D/	.	8b-\	.	8dd\	.	16d/LL	.	.
.	.	.	.	.	.	16f/	.	.
.	.	8r	.	8r	.	16d/	.	.
.	.	.	.	.	.	16f/JJ	.	.
*	*	*	*	*	*	*Xrep	*	*
*	*	*	*	*	*	*rep	*	*
4BB-/	.	8b-\)	.	8dd\)	.	16d/LL	.	.
.	.	.	.	.	.	16f/	.	.
.	.	8r	.	8r	.	16d/	.	.
.	.	.	.	.	.	16f/JJ)	.	.
*	*	*	*	*	*	*Xrep	*	*
=9	=9	=9:|!	=9:|!	=9:|!	=9:|!	=9:|!	=9:|!	=9:|!
!LO:TX:t=P:problem:mixed beam	!	!	!	!LO:TX:t=P:problem:w fagocie inne rozwiązanie repetycji	!	!LO:TX:t=P:problem:w fagocie inne rozwiązanie repetycji	!	!
8C/L	.	(>4f/yy	.	(yy4cc\yy	.	(yy>16e-/LLyy	.	2.ryy
.	.	.	.	.	.	16f/yy	.	.
8c\J	.	.	.	.	.	16e-/yy	.	.
.	.	.	.	.	.	16f/JJyy	.	.
*	*	*	*	*	*	*rep	*	*
!LO:TX:t=P:problem:mixed beam	!	!	!	!	!	!	!	!
8AA/L	.	8ryy	.	8ryy	.	16e-/LLyy	.	.
.	.	.	.	.	.	16f/yy	.	.
8A\J	.	8f/Lyy	.	8cc\Lyy	.	16e-/yy	.	.
.	.	.	.	.	.	16f/JJyy	.	.
*	*	*	*	*	*	*Xrep	*	*
*	*	*	*	*	*	*rep	*	*
!LO:TX:t=P:problem:mixed beam	!	!	!	!	!	!	!	!
8FF/L	.	8f/yy	.	8cc\yy	.	16e-/LLyy	.	.
.	.	.	.	.	.	16f/yy	.	.
8F\J	.	8f/Jyy	.	8cc\Jyy	.	16e-/yy	.	.
.	.	.	.	.	.	16f/JJyy	.	.
*	*	*	*	*	*	*Xrep	*	*
!LO:LB:g=original	!	!	!	!	!	!	!	!
=10	=10	=10	=10	=10	=10	=10	=10	=10
4BB-/	.	8b-\yy	.	8dd\yy	.	16d/LLyy	.	2.ryy
.	.	.	.	.	.	16f/yy	.	.
.	.	8ryy	.	8ryy	.	16d/yy	.	.
.	.	.	.	.	.	16f/JJyy	.	.
*	*	*	*	*	*	*rep	*	*
4D/	.	8b-\yy	.	8dd\yy	.	16d/LLyy	.	.
.	.	.	.	.	.	16f/yy	.	.
.	.	8ryy	.	8ryy	.	16d/yy	.	.
.	.	.	.	.	.	16f/JJyy	.	.
*	*	*	*	*	*	*Xrep	*	*
*	*	*	*	*	*	*rep	*	*
4BB-/	.	8b-\)yy	.	8dd\)yy	.	16d/LLyy	.	.
.	.	.	.	.	.	16f/yy	.	.
.	.	8ryy	.	8ryy	.	16d/yy	.	.
.	.	.	.	.	.	16f/JJ)yy	.	.
*	*	*	*	*	*	*Xrep	*	*
=11	=11	=11	=11	=11	=11	=11	=11	=11
*	*	*tremolo	*	*tremolo	*	*	*	*
!	!	!	!LO:DY:rj	!	!	!	!	!
8E-\L	.	8B-/L	f	8b-\L	.	8g/	.	2.ryy
(16E-\L	.	8B-/	.	8b-\	.	4b-/	.	.
16D\JJ)	.	.	.	.	.	.	.	.
16E-\LL	.	8B-/	.	8b-\	.	.	.	.
16F\	.	.	.	.	.	.	.	.
16G\	.	8B-/	.	8b-\	.	8g/	.	.
16A\JJ	.	.	.	.	.	.	.	.
16B-\LL	.	8B-/	.	8b-\	.	8eX/L	.	.
16c\	.	.	.	.	.	.	.	.
16d\	.	8B-/J	.	8b-\J	.	8f/J	.	.
16B-\JJ	.	.	.	.	.	.	.	.
!	!	!LO:LB:g=original	!	!LO:LB:g=original	!	!LO:LB:g=original	!	!
=12	=12	=12	=12	=12	=12	=12	=12	=12
16An\LL	.	8F/L	.	8f/L	.	8e-X/	.	2.ryy
16B-\	.	.	.	.	.	.	.	.
16c\	.	8F/	.	8f/	.	4cc\	.	.
16B-\JJ	.	.	.	.	.	.	.	.
16A\LL	.	8F/	.	8f/	.	.	.	.
16F\	.	.	.	.	.	.	.	.
16G\	.	8F/J	.	8f/J	.	8e-/	.	.
16A\JJ	.	.	.	.	.	.	.	.
*	*	*Xtremolo	*	*Xtremolo	*	*	*	*
16B-\LL	.	8B-/L	.	8b-\L	.	8c#X/L	.	.
16F\	.	.	.	.	.	.	.	.
16D\	.	8B-/J	.	8b-\J	.	8d/J	.	.
16BB-\JJ	.	.	.	.	.	.	.	.
=13	=13	=13	=13	=13	=13	=13	=13	=13
*2\right	*	*	*	*	*	*	*	*
*tremolo	*	*tremolo	*	*tremolo	*	*	*	*
8E-X\L	.	8cc\L	.	8cc\L	.	8g/	.	2.ryy
8E-\	.	8cc\	.	8cc\	.	4g/	.	.
8E-\	.	8cc\	.	8cc\	.	.	.	.
8E-\	.	8cc\	.	8cc\	.	4g/	.	.
8E-\	.	8cc\	.	8cc\	.	.	.	.
8E-\J	.	8cc\J	.	8cc\J	.	8g/	.	.
*Xtremolo	*	*Xtremolo	*	*Xtremolo	*	*	*	*
!LO:LB:g=original	!	!	!	!	!	!	!	!
=14	=14	=14	=14	=14	=14	=14	=14	=14
4F\	.	8r	.	8r	.	16d/LL	.	2.ryy
.	.	.	.	.	.	16c/	.	.
.	.	8f/	.	8cc\	.	16f/	.	.
.	.	.	.	.	.	16e-/JJ	.	.
.	.	8qqe-/	.	8qqcc/	.	8qqe-/	.	.
8r	.	2d/	.	2b-\	.	2d/	.	.
8F\	.	.	.	.	.	.	.	.
4BB-/	.	.	.	.	.	.	.	.
=15:|!|:	=15:|!|:	=15:|!|:	=15:|!|:	=15:|!|:	=15:|!|:	=15:|!|:	=15:|!|:	=15:|!|:
*>C	*	*	*	*	*	*	*	*
!	!	!LO:TX:a:t=1	!	!LO:TX:a:t=1	!	!	!	!
8r	.	2.r	.	2.r	.	8a\L	.	2.ryy
8F\	.	.	.	.	.	8cc\J	.	.
!LO:TX:t=P:problem:mixed beam	!	!	!	!	!	!	!	!
8FF/L	.	.	.	.	.	4cc\	.	.
8F\	.	.	.	.	.	.	.	.
8FF/	.	.	.	.	.	(16cc\LL	.	.
.	.	.	.	.	.	16b-\)	.	.
8F\J	.	.	.	.	.	(16b-\	.	.
.	.	.	.	.	.	16a\JJ)	.	.
=16	=16	=16	=16	=16	=16	=16	=16	=16
*	*	*	*	*	*	*2\right	*	*
*tremolo	*	*	*	*	*	*tremolo	*	*
8G\L	.	8r	.	8r	.	8b-\L	.	2.ryy
8G\	.	8cc\	.	8cc\	.	8b-\	.	.
*	*	*tremolo	*	*tremolo	*	*	*	*
8G\	.	8cc\L	.	8cc'\L	.	8b-\	.	.
8G\J	.	8cc\	.	8cc'\	.	8b-\	.	.
*Xtremolo	*	*	*	*	*	*	*	*
8G\L	.	8cc\	.	8cc'\	.	8b-\	.	.
8En\J	.	8cc\J	.	8cc'\J	.	8b-\J	.	.
*	*	*Xtremolo	*	*Xtremolo	*	*	*	*
=17	=17	=17	=17	=17	=17	=17	=17	=17
8C\L	.	2.cc\	.	2.cc\	.	8g/L	.	2.ryy
8En\	.	.	.	.	.	8g/	.	.
8G\	.	.	.	.	.	8g/	.	.
8E\	.	.	.	.	.	8g/	.	.
8G\	.	.	.	.	.	8g/	.	.
8E\J	.	.	.	.	.	8g/J	.	.
*	*	*	*	*	*	*Xtremolo	*	*
!LO:LB:g=original	!	!LO:LB:g=original	!	!LO:LB:g=original	!	!LO:LB:g=original	!	!
=18	=18	=18	=18	=18	=18	=18	=18	=18
8F\L	.	8cc\L	.	8cc\L	.	16c/LL	.	2.ryy
.	.	.	.	.	.	16d/	.	.
8c\J	.	8cc\J	.	8cc\J	.	16c/	.	.
.	.	.	.	.	.	16B-/JJ	.	.
.	.	.	.	.	.	8qqB-/	.	.
8r	.	4cc\	.	2cc\	.	2A/	.	.
8C/	.	.	.	.	.	.	.	.
16F\LL	.	4f/	.	.	.	.	.	.
16E-X\	.	.	.	.	.	.	.	.
16D\	.	.	.	.	.	.	.	.
16C\JJ	.	.	.	.	.	.	.	.
=19	=19	=19	=19	=19	=19	=19	=19	=19
!	!	!LO:TX:a:t=4	!	!LO:TX:a:t=4	!	!	!LO:DY:t=p&colon;	!
!	!	!LO:N:vis=0	!	!LO:N:vis=00	!	!	!	!
4BBn/	.	0.r	.	0.r	.	8dd\	p	2.ryy
.	.	.	.	.	.	4ff\	.	.
4Bn\	.	.	.	.	.	.	.	.
.	.	.	.	.	.	8ff\L	.	.
4r	.	.	.	.	.	8ee-\	.	.
.	.	.	.	.	.	8dd\J	.	.
=20	=20	=20	=20	=20	=20	=20	=20	=20
8r	.	.	.	.	.	(8bX\L	f	2.ryy
!LO:TX:t=P:problem:mixed beam	!	!	!	!	!	!	!	!
8c\L	.	.	.	.	.	8cc\J)	.	.
8C/J	.	.	.	.	.	8r	.	.
8r	.	.	.	.	.	(8ee-\L	p	.
4r	.	.	.	.	.	8dd\	.	.
.	.	.	.	.	.	8cc\J)	.	.
=21	=21	=21	=21	=21	=21	=21	=21	=21
8r	.	.	.	.	.	(8a\L	.	2.ryy
!LO:TX:t=P:problem:mixed beam	!	!	!	!	!	!	!	!
8B-X\L	.	.	.	.	.	8b-\J)	.	.
8BB-/	.	.	.	.	.	8r	.	.
8B-'\	.	.	.	.	.	8dd\L	.	.
8B-'\	.	.	.	.	.	8gg'\	.	.
8B-'\J	.	.	.	.	.	8ff'\J	.	.
!LO:LB:g=original	!	!	!	!	!	!	!	!
=22	=22	=22	=22	=22	=22	=22	=22	=22
!	!	!LO:TX:a:t=Dal Segno	!	!LO:TX:a:t=Dal Segno	!	!	!	!
8A'\L	.	.	.	.	.	8ee-'\L	.	2.ryy
8B-'\	.	.	.	.	.	8dd'\	.	.
8A'\	.	.	.	.	.	8cc'\	.	.
8B-'\J	.	.	.	.	.	8b-'\J	.	.
!	!	!	!	!	!	!LO:TX:a:t=Dal segno	!	!
.	.	.	.	.	.	8qqb-/	.	.
8F\	.	.	.	.	.	4a\	.	.
!LO:TX:a:t=Dal Segno	!	!	!	!	!	!	!	!
8r	.	.	.	.	.	.	.	.
!LO:LB;g=original	!	!	!	!LO:LB;g=original	!	!	!	!
=23||	=23||	=23||	=23||	=23||	=23||	=23||	=23||	=23||
*>D	*	*	*	*	*	*	*	*
*M3/4	*	*M3/4	*	*M3/4	*	*M3/4	*	*M3/4
!	!	!	!	!	!	!LO:TX:a:t=Trio	!	!
!LO:TX:b:t=dol&colon;	!	!LO:TX:a:t=Trio	!	!LO:TX:a:t=Trio	!	!LO:TX:a:t=1	!	!
(8B-\L	.	8dd\	p	8r	p	2.r	.	2.ryy
8d\)	.	8r	.	8ff\	.	.	.	.
(8B-\	.	8dd\	.	8r	.	.	.	.
8d\)	.	8r	.	8ff\	.	.	.	.
(8B-\	.	8dd\	.	8r	.	.	.	.
!	!	!	!	!LO:TX:t=P:problem:wykreślona pazua 8	!	!	!	!
8d\J)	.	8r	.	8ff\	.	.	.	.
=24	=24	=24	=24	=24	=24	=24	=24	=24
!	!	!	!	!	!	!LO:TX:b:t=dol&colon;	!	!
8c\	.	8dd'\	.	8r	.	4.ee-\	.	2.ryy
8r	.	8r	.	8ff\	.	.	.	.
8A\	.	8cc'\	.	8r	.	.	.	.
8r	.	8r	.	8ff\	.	(16dd\LL	.	.
.	.	.	.	.	.	16cc\JJ	.	.
8F\	.	8cc'\	.	8r	.	16b-\LL	.	.
.	.	.	.	.	.	16a\)	.	.
!	!	!	!	!LO:TX:t=P:problem:wykreślona pazua 8	!	!	!	!
8r	.	8r	.	8ff\	.	16g\	.	.
.	.	.	.	.	.	16f\JJ	.	.
=25	=25	=25	=25	=25	=25	=25	=25	=25
(8B-\L	.	8dd\	.	8r	.	4b-\	.	2.ryy
8d\)	.	8r	.	8ff\	.	.	.	.
(8B-\	.	8dd\	.	8r	.	4r	.	.
8d\)	.	8r	.	8ff\	.	.	.	.
(8B-\	.	8dd\	.	8r	.	4r	.	.
!	!	!	!	!LO:TX:t=P:problem:wykreślona pazua 8	!	!	!	!
8d\J)	.	8r	.	8ff\	.	.	.	.
!LO:LB:g=original	!	!	!	!LO:LB:g=original	!	!	!	!
=26	=26	=26	=26	=26	=26	=26	=26	=26
4f\	.	8cc\	.	8r	.	16a\LL	.	2.ryy
.	.	.	.	.	.	16cc\	.	.
.	.	8r	.	8ff\	.	16b-\	.	.
.	.	.	.	.	.	16a\JJ	.	.
.	.	.	.	.	.	8qqa/	.	.
8r	.	8cc\	.	8r	.	2b-\	.	.
8F\	.	8r	.	8ff\	.	.	.	.
4B-\	.	4b-\	.	4ff\	.	.	.	.
!	!	!LO:LB;g=original	!	!	!	!LO:LB:g=original	!	!
=27:|!|:	=27:|!|:	=27:|!|:	=27:|!|:	=27:|!|:	=27:|!|:	=27:|!|:	=27:|!|:	=27:|!|:
*>E	*	*	*	*	*	*	*	*
!	!LO:DY:b:t=for	!	!LO:DY:rj:b:t=for	!	!LO:DY:rj:b:t=for	!	!LO:DY:rj:b:t=for	!
4F\	f	4.f/	f	4.cc\	f	16A/LL	f	2.ryy
.	.	.	.	.	.	16c/	.	.
.	.	.	.	.	.	16A/	.	.
.	.	.	.	.	.	16c/JJ	.	.
*	*	*	*	*	*	*rep	*	*
4A\	.	.	.	.	.	16A/LL	.	.
.	.	.	.	.	.	16c/	.	.
.	.	8f/L	.	8cc\L	.	16A/	.	.
.	.	.	.	.	.	16c/JJ	.	.
*	*	*	*	*	*	*Xrep	*	*
*	*	*	*	*	*	*rep	*	*
4F\	.	8f/	.	8cc\	.	16A/LL	.	.
.	.	.	.	.	.	16c/	.	.
.	.	8f/J	.	8cc\J	.	16A/	.	.
.	.	.	.	.	.	16c/JJ	.	.
*	*	*	*	*	*	*Xrep	*	*
=28	=28	=28	=28	=28	=28	=28	=28	=28
4BB-/	.	4.b-\	.	4.dd\	.	16B-/LL	.	2.ryy
.	.	.	.	.	.	16d/	.	.
.	.	.	.	.	.	16B-/	.	.
.	.	.	.	.	.	16d/JJ	.	.
*	*	*	*	*	*	*rep	*	*
4D/	.	.	.	.	.	16B-/LL	.	.
.	.	.	.	.	.	16d/	.	.
.	.	8b-\L	.	8dd\L	.	16B-/	.	.
.	.	.	.	.	.	16d/JJ	.	.
*	*	*	*	*	*	*Xrep	*	*
*	*	*	*	*	*	*rep	*	*
4BB-/	.	8b-\	.	8dd\	.	16B-/LL	.	.
.	.	.	.	.	.	16d/	.	.
.	.	8b-\J	.	8dd\J	.	16B-/	.	.
.	.	.	.	.	.	16d/JJ	.	.
*	*	*	*	*	*	*Xrep	*	*
=29	=29	=29	=29	=29	=29	=29	=29	=29
4FF/	.	4.f/	.	4.cc\	.	16A/LL	.	2.ryy
.	.	.	.	.	.	16c/	.	.
.	.	.	.	.	.	16A/	.	.
.	.	.	.	.	.	16c/JJ	.	.
*	*	*	*	*	*	*rep	*	*
4AA/	.	.	.	.	.	16A/LL	.	.
.	.	.	.	.	.	16c/	.	.
.	.	8f/L	.	8cc\L	.	16A/	.	.
.	.	.	.	.	.	16c/JJ	.	.
*	*	*	*	*	*	*Xrep	*	*
*	*	*	*	*	*	*rep	*	*
4FF/	.	8f/	.	8cc\	.	16A/LL	.	.
.	.	.	.	.	.	16c/	.	.
.	.	8f/J	.	8cc\J	.	16A/	.	.
.	.	.	.	.	.	16c/JJ	.	.
*	*	*	*	*	*	*Xrep	*	*
!	!	!	!	!	!	!LO:LB:g=original	!	!
=30	=30	=30	=30	=30	=30	=30	=30	=30
8BB-/L	.	4B-/	.	4b-\	.	16b-\LL	.	2.ryy
.	.	.	.	.	.	16a\	.	.
8D/	.	.	.	.	.	16g\	.	.
.	.	.	.	.	.	16f\JJ	.	.
8E-X/	.	4r	.	4r	.	16e-/LL	.	.
.	.	.	.	.	.	16d/	.	.
8En/J	.	.	.	.	.	16c/	.	.
.	.	.	.	.	.	16B-/JJ	.	.
16F\LL	.	4r	.	4r	.	4F/	.	.
16E-X\	.	.	.	.	.	.	.	.
16D\	.	.	.	.	.	.	.	.
16C\JJ	.	.	.	.	.	.	.	.
!LO:LB:g=original	!	!	!	!LO:LB:g=original	!	!	!	!
=31	=31	=31	=31	=31	=31	=31	=31	=31
!	!LO:DY:t=p&colon;	!	!	!	!	!LO:TX:a:t=1	!	!
(8B-\L	p	8dd\	p	8r	.	2.r	.	2.ryy
8d\)	.	8r	.	8ff\	p	.	.	.
(8B-\	.	8dd\	.	8r	.	.	.	.
8d\)	.	8r	.	8ff\	.	.	.	.
(8B-\	.	8dd\	.	8r	.	.	.	.
8d\J)	.	8r	.	8ff\	.	.	.	.
!	!	!LO:LB:g=original	!	!	!	!	!	!
=32	=32	=32	=32	=32	=32	=32	=32	=32
!	!	!	!	!	!	!LO:TX:b:t=dol	!	!
8c\	.	8cc\	.	8r	.	(4.ee-\	.	2.ryy
8r	.	8r	.	8ff\	.	.	.	.
8A\	.	8cc\	.	8r	.	.	.	.
8r	.	8r	.	8ff\	.	16dd\LL	.	.
.	.	.	.	.	.	16cc\JJ)	.	.
8F\	.	8cc\	.	8r	.	(16b-\LL	.	.
.	.	.	.	.	.	16a\	.	.
8r	.	8r	.	8ff\	.	16g\	.	.
.	.	.	.	.	.	16f\JJ)	.	.
=33	=33	=33	=33	=33	=33	=33	=33	=33
(8B-\L	.	8dd\	.	8r	.	4b-\	.	2.ryy
8d\)	.	8r	.	8ff\	.	.	.	.
(8B-\	.	8dd\	.	8r	.	4r	.	.
8d\)	.	8r	.	8ff\	.	.	.	.
(8B-\	.	8dd\	.	8r	.	4r	.	.
8d\J)	.	8r	.	8ff\	.	.	.	.
=34	=34	=34	=34	=34	=34	=34	=34	=34
4f\	.	8cc\	.	8r	.	16a\LL	.	2.ryy
.	.	.	.	.	.	16cc\	.	.
.	.	8r	.	8ff\	.	16b-\	.	.
.	.	.	.	.	.	16a\JJ	.	.
!	!	!	!	!	!	!LO:TX:b:t=Polo Da Capo	!	!
.	.	.	.	.	.	8qqa/	.	.
8r	.	8cc\	.	8r	.	2b-\	.	.
8F\	.	8r	.	8ff\	.	.	.	.
!LO:TX:b:t=Polo Da Capo	!	!LO:TX:a:t=Polo D.C.	!	!LO:TX:b:t=Polo D&colon;C&colon;	!	!	!	!
4B-\	.	4b-\	.	4ff\	.	.	.	.
=:|!	=:|!	=:|!	=:|!	=:|!	=:|!	=:|!	=:|!	=:|!
*-	*-	*-	*-	*-	*-	*-	*-	*-
!!!system-decoration: s1,s2,s3,s4,s5
!!!RDF**kern: > = above
!!!RDF**kern: < = below
!!!AIN: 2 clars 2 empty 1 fagot
!!!ENC: Andrzej Gręziak
!!!END: 2021-06-17
!!!EED: Leszek Kubiak
!!!EST: 2021-06-28
